X:1
T:Gil Brenton
M:3/4
L:1/8
K:G
 G| BB A2 GE| ED/2-F/2E/2-F/2 E2 E| EG B2B-e| ddA/2-B/2 A2- A/2G/2|\
 GEG BB-e| ddA/2-B/2 AG-A| BdB-AG-E| DD/2-F/2E/2-F/2 E2||
